X: 29980
T: Ocean Walk
R: slide
M: 12/8
K: Emixolydian
|:E2 e edc ~B3 BcB|A2e edc dc AB AF|
E2 e edc ~B3 BcB|1 A3 EFA G2E BAF:|2 A3 EFA G2E GAB||
|:e2c age d2f efe|c2A efe ABc Bcd|
[1 e2c age d2f efe|c2A efe ABc Bcd:|
[2 e2c age d2f e2d|efe dcA BAF BAF||

